X:143 
T:McGovern's Favorite (reel) 
B:CRE3.083 (Rogha Mhic ShamhrÃÂÃÂÃÂÃÂ¡in)
F:file ID: cre.3/143mcgov_f
N:Note that Part B does not repeat.
R:reel
Q:180
M:C
L:1/8
K:Am
A3z AGED|GABd edBd|eaa^f gedB|AcBG AGED|
A2 (3ABA GEDE|GABd edBd|eaa^f gedB|AcBG A3z:|
a3b age^f|(3g^fe dB GABd|eg^fa gedB|AcBG AGEg|
a3b age^f|gedB GABd|eaa2 gede|(3gab a^f gedB||

%%%

